icons/op-glossar-16.svg

<svg width="16" height="16" viewBox="0 0 16 16" fill="none" xmlns="http://www.w3.org/2000/svg">
<path fill-rule="evenodd" clip-rule="evenodd" d="M5.70117 5.17188C5.30274 5.17188 5 4.91406 5 4.53711C5 4.15625 5.29297 3.93555 5.81641 3.9043L6.34375 3.87305V3.73438C6.34375 3.53906 6.20703 3.42578 5.99219 3.42578C5.81836 3.42578 5.71289 3.48242 5.58594 3.64648C5.52344 3.7168 5.45117 3.75195 5.35938 3.75195C5.2207 3.75195 5.1211 3.66211 5.1211 3.5332C5.1211 3.48828 5.13086 3.44727 5.15039 3.4043C5.24805 3.1543 5.58399 3 6.01758 3C6.55469 3 6.9043 3.27734 6.9043 3.69922V4.89258C6.9043 5.08203 6.78906 5.17969 6.62695 5.17969C6.47266 5.17969 6.36524 5.09375 6.35352 4.92578V4.81836H6.3418C6.22461 5.04102 5.96289 5.17188 5.70117 5.17188ZM5.88867 4.75977C6.13867 4.75977 6.34375 4.59766 6.34375 4.37109V4.21875L5.90235 4.24609C5.68945 4.26172 5.56836 4.35742 5.56836 4.50586C5.56836 4.66211 5.69727 4.75977 5.88867 4.75977Z" fill="#1F2328"/>
<path d="M7.58445 4.24219C7.43016 4.24219 7.31492 4.15039 7.31492 3.99219C7.31492 3.83398 7.43016 3.74414 7.58445 3.74414H8.39891C8.5532 3.74414 8.66844 3.83398 8.66844 3.99219C8.66844 4.15039 8.5532 4.24219 8.39891 4.24219H7.58445Z" fill="#1F2328"/>
<path d="M9.0107 4.91211C9.0107 5.04883 9.10641 5.13867 9.2568 5.13867H10.542C10.6865 5.13867 10.7724 5.05859 10.7724 4.91992C10.7724 4.78125 10.6865 4.70117 10.542 4.70117H9.73727V4.69141L10.6279 3.52539C10.6943 3.44141 10.7197 3.37695 10.7197 3.29492C10.7197 3.14062 10.6162 3.04492 10.4482 3.04492H9.22945C9.08297 3.04492 8.99899 3.125 8.99899 3.26172C8.99899 3.40039 9.08492 3.48047 9.22945 3.48047H10.0556V3.49219L9.09078 4.71484C9.03219 4.78516 9.0107 4.83789 9.0107 4.91211Z" fill="#1F2328"/>
<path fill-rule="evenodd" clip-rule="evenodd" d="M2.73223 0.732233C2.26339 1.20107 2 1.83696 2 2.5V11.5C1.99929 12.1544 2.25571 12.7829 2.714 13.25C2.85324 13.3922 3.04325 13.4732 3.24222 13.4752C3.4412 13.4773 3.63285 13.4002 3.775 13.261C3.91716 13.1218 3.99818 12.9318 4.00024 12.7328C4.0023 12.5338 3.92524 12.3422 3.786 12.2C3.64816 12.0594 3.5549 11.8812 3.51793 11.6878C3.48096 11.4943 3.50191 11.2943 3.57816 11.1128C3.65442 10.9312 3.78257 10.7762 3.94657 10.6672C4.11056 10.5582 4.30308 10.5 4.5 10.5H12.5V12.5H10.75C10.5511 12.5 10.3603 12.579 10.2197 12.7197C10.079 12.8603 10 13.0511 10 13.25C10 13.4489 10.079 13.6397 10.2197 13.7803C10.3603 13.921 10.5511 14 10.75 14H13.25C13.4489 14 13.6397 13.921 13.7803 13.7803C13.921 13.6397 14 13.4489 14 13.25V0.75C14 0.551088 13.921 0.360322 13.7803 0.21967C13.6397 0.0790176 13.4489 0 13.25 0H4.5C3.83696 0 3.20108 0.263392 2.73223 0.732233ZM12.5 9V1.5H4.5C4.23478 1.5 3.98043 1.60536 3.79289 1.79289C3.60536 1.98043 3.5 2.23478 3.5 2.5V9.208C3.806 9.074 4.144 9 4.5 9H12.5Z" fill="#1F2328"/>
<path d="M5 15.5V12.25C5 12.1837 5.02634 12.1201 5.07322 12.0732C5.12011 12.0263 5.1837 12 5.25 12H8.75C8.81631 12 8.87989 12.0263 8.92678 12.0732C8.97366 12.1201 9 12.1837 9 12.25V15.5C9 15.5464 8.98707 15.5919 8.96266 15.6314C8.93826 15.6709 8.90333 15.7028 8.8618 15.7236C8.82028 15.7444 8.77379 15.7532 8.72755 15.749C8.68131 15.7448 8.63714 15.7279 8.6 15.7L7.15 14.613C7.10673 14.5805 7.05409 14.563 7 14.563C6.94591 14.563 6.89328 14.5805 6.85 14.613L5.4 15.7C5.36286 15.7279 5.31869 15.7448 5.27245 15.749C5.22621 15.7532 5.17972 15.7444 5.1382 15.7236C5.09667 15.7028 5.06175 15.6709 5.03734 15.6314C5.01293 15.5919 5 15.5464 5 15.5Z" fill="#1F2328"/>
</svg>

<svg xmlns="http://www.w3.org/2000/svg" width="16" height="16" viewBox="0 0 16 16"><path d="M5.701 5.172c-.398 0-.701-.258-.701-.635 0-.381.293-.601.816-.633l.528-.031v-.139c0-.195-.137-.308-.352-.308-.174 0-.279.056-.406.22a.287.287 0 0 1-.227.106c-.138 0-.238-.09-.238-.219a.31.31 0 0 1 .029-.129c.098-.25.434-.404.868-.404.537 0 .886.277.886.699v1.194c0 .189-.115.287-.277.287-.154 0-.262-.086-.273-.254v-.108h-.012c-.117.223-.379.354-.641.354Zm.188-.412c.25 0 .455-.162.455-.389v-.152l-.442.027c-.213.016-.334.111-.334.26 0 .156.129.254.321.254Zm1.695-.518c-.154 0-.269-.092-.269-.25s.115-.248.269-.248h.815c.154 0 .269.09.269.248s-.115.25-.269.25h-.815Zm1.427.67c0 .137.095.227.246.227h1.285c.145 0 .23-.08.23-.219s-.085-.219-.23-.219h-.805v-.01l.891-1.166c.066-.084.092-.148.092-.23 0-.154-.104-.25-.272-.25H9.229c-.146 0-.23.08-.23.217 0 .138.086.218.23.218h.827v.012l-.965 1.223c-.059.07-.08.123-.08.197Z"/><path d="M2.732.732A2.5 2.5 0 0 1 4.5 0h8.75c.199 0 .39.079.53.22.141.14.22.331.22.53v12.5c0 .199-.079.39-.22.53a.747.747 0 0 1-.53.22h-2.5a.747.747 0 0 1-.53-.22.747.747 0 0 1 0-1.06.747.747 0 0 1 .53-.22h1.75v-2h-8a.998.998 0 0 0-.982 1.188c.037.193.13.371.268.512a.752.752 0 0 1-.544 1.275.75.75 0 0 1-.528-.225A2.495 2.495 0 0 1 2 11.5v-9A2.5 2.5 0 0 1 2.732.732ZM12.5 9V1.5h-8a.997.997 0 0 0-1 1v6.708A2.486 2.486 0 0 1 4.5 9Z"/><path d="M5 15.5v-3.25a.25.25 0 0 1 .25-.25h3.5a.25.25 0 0 1 .25.25v3.25a.252.252 0 0 1-.138.224.26.26 0 0 1-.134.025.246.246 0 0 1-.128-.049l-1.45-1.087a.253.253 0 0 0-.3 0L5.4 15.7a.246.246 0 0 1-.128.049.26.26 0 0 1-.134-.025A.252.252 0 0 1 5 15.5Z"/></svg>
